X:2638
T:Captive Waltz,The,1st part. JNu.31
M:3/8
L:1/16
Q:45
S:James Nuttall MS,c1830?,Rossendale,East Lancs.
R:Waltz
O:England
A:East Lancashire
Z:vmp.Manchester Morris Men
K:D
"primo"A>A|A4d>d|d4f>g|e2f2e2|d2A2A>A|
A4d>d|d4f>f|e2f2e2|d4::!
e>e|e2f2^g2|a2b2c'2|d'2c'2b2|c'2b2a2|
e2f2^g2|a2b2c'2|d'2c'2b2|a2z2:|]


